X: 14188
T: Frost Is All Over, The
R: jig
M: 6/8
K: Dmajor
|:dcd edc|dAF GFE|DFA DFA|Bcd efg|
faf gfe|dAF GFE|DFA DFA|1 BAF d2 A:|2 BAF d3||
|:fdf afd|gfg bag|fdf afd|gfg efg|
[1 fdf afd|gfg bag|fga efg|fdc d2 e:|
[2 fga efg|fdB AFA|Bcd efg|fdf gfe||

